!!!OTL: Liebesentzuecken.
!!!OTL-incipit: MEIN MAEDEL HAT EINEN ROSENMUND
!!!ARE: Europa, Mitteleuropa, Deutschland, Hessen
!!!SCT: Z1164
!!!TXL: @@DE
!!!YEM: Copyright 1995, estate of Helmut Schaffrath.
**kern	**text
*ICvox	*
*M4/4	*
*met(c)	*
*k[b-e-]	*
*B-:	*
!LO:TX:a:t=Aus Heſſen.	!
{4f	Mein
=1	=1
4b-/	Mä-
4b-/	-del
4b-/	hat
8cc/	ei-
8b-/	-nen
=2	=2
4.a	Ro-
8g	-ſen-
4f}	-mund,
{4f	und
=3	=3
4g	wer
4g	ihn
(>4b-/	küßt,
8a)	.
8g	der
=4	=4
4.f	wird
8e-	ge-
4d}	-ſund;
{4f	o
=5	=5
4b-/	du!
4b-/	o
4cc/	du!
4cc/	o
=6	=6
4dd/	du!
4r	.
4r}	.
{8b-/L	o
8ccJ	.
=7	=7
4dd/	du
4dd/	ſchwarʒ-
4dd/	-brau-
4ff/	-nes
=8	=8
8ff/L	Mäg-
8ee-J	.
8ee-/L	-de-
8ddJ	.
4cc/}	-lein,
{4b-/	du,
=9	=9
8cc/	la-
8cc/	-la-
8cc/	-la-
8cc/	-la-
4cc/	-la!
8dd/	la-
8ee-/	-la-
=10	=10
8ff/	-la-
8ee-/	-la-
8dd/	-la-
8cc/	-la-
4.b-/}	-la!
{8dd/	du
=11	=11
8dd/L	läßt
8cc	.
8ee-J	.
8cc/	mir
4b-/	kei-
4a	-ne
=12	=12
4b-/	Ruh'!
4r	.
4r}	.
==	==
!!!AGN: Liebes - Lied
!!!ONB: ESAC (Essen Associative Code) Database: ZUCCAL
!!!AMT: simple quadruple
!!!AIN: vox
!!!EED: Helmut Schaffrath
!!!EEV: 1.0
!!!RDF**kern: >= above
!!!GTL: V. Lieder der Minne.
!!!URL-scan: https://www.digitale-sammlungen.de/de/view/bsb11160573?page=349
!!!ENC: Anna Maria Matuszewska
!!!EEV: 2025/02/05
*-	*-
